images/icons/paypal.svg

<svg width="24" height="24" viewBox="0 0 24 24" fill="none" xmlns="http://www.w3.org/2000/svg">
<path opacity="0.68" d="M20.3291 6.0976C20.6219 4.2308 20.3271 2.9604 19.3175 1.8096C18.2055 0.5428 16.1971 0 13.6271 0H6.16794C5.64274 0 5.19594 0.3824 5.11394 0.9008L2.00794 20.5968C1.94674 20.9856 2.24714 21.3372 2.64034 21.3372H7.24554L6.92754 23.3528C6.87394 23.6924 7.13674 24 7.48074 24H11.3623C11.8215 24 12.2127 23.666 12.2843 23.212L12.3227 23.0148L13.0539 18.378L13.1011 18.1216C13.1727 17.6676 13.5639 17.3336 14.0231 17.3336H14.6039C18.3639 17.3336 21.3087 15.8056 22.1691 11.3876C22.5287 9.5416 22.3427 8.0004 21.3919 6.9172C21.1039 6.5896 20.7463 6.3184 20.3291 6.0976Z" fill="white"/>
<path opacity="0.7" d="M20.3291 6.0976C20.6219 4.2308 20.3271 2.9604 19.3175 1.8096C18.2055 0.5428 16.1971 0 13.6271 0H6.16794C5.64274 0 5.19594 0.3824 5.11394 0.9008L2.00794 20.5968C1.94674 20.9856 2.24714 21.3372 2.64034 21.3372H7.24554L8.40234 14.002L8.36634 14.232C8.44834 13.7132 8.89154 13.3312 9.41674 13.3312H11.6055C15.9039 13.3312 19.2695 11.5848 20.2531 6.5344C20.2819 6.3848 20.3067 6.24 20.3291 6.0976Z" fill="white"/>
<path d="M9.64474 6.1224C9.69394 5.8104 9.89434 5.5548 10.1639 5.4256C10.2867 5.3668 10.4235 5.334 10.5671 5.334H16.4143C17.1071 5.334 17.7527 5.3792 18.3431 5.4744C18.5119 5.5016 18.6763 5.5328 18.8355 5.568C18.9947 5.6032 19.1499 5.6432 19.2999 5.6868C19.3747 5.7088 19.4487 5.7316 19.5211 5.7556C19.8111 5.852 20.0807 5.9652 20.3295 6.0972C20.6223 4.2304 20.3275 2.96 19.3179 1.8092C18.2055 0.5428 16.1971 0 13.6271 0H6.16794C5.64274 0 5.19594 0.3824 5.11394 0.9008L2.00794 20.5968C1.94674 20.9856 2.24714 21.3372 2.64034 21.3372H7.24554L8.40234 14.002L9.64474 6.1224Z" fill="white"/>
</svg>

<svg fill="none" height="24" viewBox="0 0 24 24" width="24" xmlns="http://www.w3.org/2000/svg"><g fill="#fff"><path d="m20.3291 6.0976c.2928-1.8668-.002-3.1372-1.0116-4.288-1.112-1.2668-3.1204-1.8096-5.6904-1.8096h-7.45916c-.5252 0-.972.3824-1.054.9008l-3.106 19.696c-.0612.3888.2392.7404.6324.7404h4.6052l-.318 2.0156c-.0536.3396.2092.6472.5532.6472h3.88156c.4592 0 .8504-.334.922-.788l.0384-.1972.7312-4.6368.0472-.2564c.0716-.454.4628-.788.922-.788h.5808c3.76 0 6.7048-1.528 7.5652-5.946.3596-1.846.1736-3.3872-.7772-4.4704-.288-.3276-.6456-.5988-1.0628-.8196z" opacity=".68"/><path d="m20.3291 6.0976c.2928-1.8668-.002-3.1372-1.0116-4.288-1.112-1.2668-3.1204-1.8096-5.6904-1.8096h-7.45916c-.5252 0-.972.3824-1.054.9008l-3.106 19.696c-.0612.3888.2392.7404.6324.7404h4.6052l1.1568-7.3352-.036.23c.082-.5188.5252-.9008 1.0504-.9008h2.18876c4.2984 0 7.664-1.7464 8.6476-6.7968.0288-.1496.0536-.2944.076-.4368z" opacity=".7"/><path d="m9.64474 6.1224c.0492-.312.2496-.5676.51916-.6968.1228-.0588.2596-.0916.4032-.0916h5.8472c.6928 0 1.3384.0452 1.9288.1404.1688.0272.3332.0584.4924.0936s.3144.0752.4644.1188c.0748.022.1488.0448.2212.0688.29.0964.5596.2096.8084.3416.2928-1.8668-.002-3.1372-1.0116-4.288-1.1124-1.2664-3.1208-1.8092-5.6908-1.8092h-7.45916c-.5252 0-.972.3824-1.054.9008l-3.106 19.696c-.0612.3888.2392.7404.6324.7404h4.6052l1.1568-7.3352z"/></g></svg>
